img/icons/mime/large/pnm.svg

<svg height="140.9" width="125.3" xmlns="http://www.w3.org/2000/svg" xmlns:xlink="http://www.w3.org/1999/xlink"><linearGradient id="a" gradientTransform="matrix(.939922 0 0 .896911 -12.081733 -3.352424)" gradientUnits="userSpaceOnUse" x1="24" x2="73" y1="16.4" y2="73.4"><stop offset="0" stop-color="#fff"/><stop offset="1" stop-color="#fff" stop-opacity="0"/></linearGradient><linearGradient id="b" gradientTransform="matrix(1.222575 0 0 .738788 -10.653167 -7.742593)" gradientUnits="userSpaceOnUse" x1="12.2" x2="107.8" y1="84" y2="84"><stop offset="0" stop-color="#46a046"/><stop offset=".4" stop-color="#df421e"/><stop offset=".7" stop-color="#ada7c8"/><stop offset="1" stop-color="#eed680"/></linearGradient><g stroke="#000"><rect fill="none" height="133.4" rx="22.9" stroke-linejoin="round" stroke-opacity=".5" stroke-width="7.5" width="117.8" x="3.8" y="3.8"/><rect fill="#df421e" height="133.4" rx="22.9" stroke-width="3.8" width="117.8" x="3.6" y="3.7"/><rect fill="url(#b)" height="67.2" rx="1.3" stroke-width="3.3" width="113.7" x="5.9" y="20.8"/></g><path d="m100.3 132.6h-75.7c-11.6 0-17.3-5.7-17.3-17.4 0 0 27.6-66.5 110.4-76.6v76.6c0 11.7-5.7 17.4-17.4 17.4z" fill="#fff" fill-opacity=".3"/><path d="m24.6 7.3h75.7c11.7 0 17.4 5.7 17.4 17.4 0 0-79.3.9-110.4 91.3v-91.3c0-10.3 7-17.4 17.3-17.4z" fill="url(#a)"/><path d="m82.7 125.3h-6.8v-31.1h10l8.2 24.1 8.2-24.1h10.1v31.1h-6.7v-23.2h-.2l-8.1 23.2h-6.5l-8.1-23.2h-.1zm-32.9 0h-6.7v-31.1h8.4l12.8 22.8h.2v-22.8h6.7v31.1h-8.5l-12.8-22.7h-.1zm-31.3-11.1v11.1h-6.7v-31.1h18.7c2.9 0 5.2.9 6.8 2.6 1.7 1.7 2.6 4.1 2.6 7.4s-.9 5.7-2.6 7.5c-1.6 1.7-3.9 2.5-6.8 2.5zm0-14.6v9.3h9c1.4 0 2.6-.4 3.6-1.1.9-.8 1.4-2 1.4-3.6s-.5-2.7-1.4-3.5c-1-.7-2.2-1.1-3.6-1.1z"/><path d="m82 124.7h-6.7v-31.2h10l8.1 24.1 8.3-24.1h10v31.2h-6.7v-23.3h-.2l-8.1 23.3h-6.5l-8.1-23.3h-.1zm-32.9 0h-6.7v-31.2h8.5l12.7 22.8h.2v-22.8h6.7v31.2h-8.5l-12.7-22.8h-.2zm-31.2-11.2v11.2h-6.8v-31.2h18.7c2.9 0 5.2.9 6.9 2.6 1.6 1.7 2.5 4.2 2.5 7.4 0 3.3-.9 5.8-2.5 7.5-1.7 1.7-4 2.5-6.9 2.5zm0-14.6v9.3h8.9c1.4 0 2.6-.4 3.6-1.1.9-.8 1.4-2 1.4-3.6 0-1.5-.5-2.7-1.4-3.4-.9-.8-2.1-1.2-3.6-1.2z" fill="#fff"/></svg>

<svg xmlns:svg="http://www.w3.org/2000/svg" xmlns="http://www.w3.org/2000/svg" xmlns:xlink="http://www.w3.org/1999/xlink" id="svg1" width="125.3" height="140.9" version="1">
<style>
.s0{
  stop-color:#46a046;
  stop-opacity:1;
}
.s1{
  stop-color:#df421e;
  stop-opacity:1;
}
.s2{
  stop-color:#ada7c8;
  stop-opacity:1;
}
.s3{
  stop-color:#eed680;
  stop-opacity:1;
}
.s4{
  stop-color:#00ff00;
  stop-opacity:1;
}
.s5{
  stop-color:#ff0000;
  stop-opacity:1;
}
.s6{
  stop-color:#7f8cff;
  stop-opacity:1;
}
.s7{
  stop-color:#ffff00;
  stop-opacity:1;
}

</style>  <metadata id="metadata15"/>
  <defs id="defs3">
    <linearGradient id="linearGradient3587">
      <stop id="stop3589" offset="0" style="stop-color:#efe0cd;stop-opacity:0.6"/>
      <stop id="stop3591" offset="1" style="stop-color:#cececd;stop-opacity:0.2"/>
    </linearGradient>
    <linearGradient id="linearGradient2832">
      <stop offset="0" id="stop2834" style="stop-color:#ffffff;stop-opacity:1"/>
      <stop offset="1" id="stop2836" style="stop-color:#ffffff;stop-opacity:0"/>
    </linearGradient>
    <linearGradient id="linearGradient839">
      <stop offset="0" id="stop840" class="s0"/>
      <stop offset="0.4" id="stop841" class="s1"/>
      <stop offset="0.7" id="stop842" class="s2"/>
      <stop offset="1" id="stop843" class="s3"/>
    </linearGradient>
    <linearGradient gradientUnits="userSpaceOnUse" gradientTransform="scale(1.353569,0.738788)" xlink:href="#linearGradient839" id="linearGradient836" x1="12.2" y1="84" x2="107.8" y2="84"/>
    <linearGradient xlink:href="#linearGradient2832" id="linearGradient2830" gradientTransform="matrix(0.939922,0,0,0.896911,-12.081733,-3.3524237)" x1="24" y1="16.4" x2="73" y2="73.4" gradientUnits="userSpaceOnUse"/>
    <linearGradient y2="93.7" x2="107.3" y1="124.3" x1="111.3" gradientTransform="matrix(0.777129,0,0,0.894628,-162.4688,12.76856)" gradientUnits="userSpaceOnUse" id="linearGradient1407" xlink:href="#linearGradient1700"/>
    <linearGradient y2="93.7" x2="107.3" y1="124.3" x1="111.3" gradientTransform="matrix(0.777129,0,0,0.894628,-2.922179,10.43077)" gradientUnits="userSpaceOnUse" id="linearGradient1390" xlink:href="#linearGradient1700"/>
    <linearGradient id="linearGradient1350">
      <stop offset="0" id="stop1352" class="s0"/>
      <stop offset="0.4" id="stop1354" class="s1"/>
      <stop offset="0.7" id="stop1356" class="s2"/>
      <stop offset="1" id="stop1358" class="s3"/>
    </linearGradient>
    <linearGradient xlink:href="#linearGradient839" id="linearGradient1360" x1="0" y1="0.5" x2="1" y2="0.5"/>
    <linearGradient xlink:href="#linearGradient1700" id="linearGradient1362" gradientTransform="matrix(0.870364,0,0,1.001961,4.612015,4.886798)" x1="123.5" y1="121.7" x2="128.7" y2="88" gradientUnits="userSpaceOnUse"/>
    <linearGradient xlink:href="#linearGradient839" id="linearGradient1363" x1="0" y1="0.5" x2="1" y2="0.5"/>
    <linearGradient id="linearGradient1353">
      <stop offset="0" id="stop1355" class="s0"/>
      <stop offset="0.4" id="stop1357" class="s1"/>
      <stop offset="0.7" id="stop1359" class="s2"/>
      <stop offset="1" id="stop1361" class="s3"/>
    </linearGradient>
    <linearGradient id="linearGradient1700">
      <stop offset="0" id="stop1701" style="stop-color:#000000;stop-opacity:0.7"/>
      <stop offset="1" id="stop1702" style="stop-color:#000000;stop-opacity:0"/>
    </linearGradient>
    <linearGradient y2="0.5" x2="1" y1="0.5" x1="0" id="linearGradient1427" xlink:href="#linearGradient839"/>
    <linearGradient id="linearGradient1417">
      <stop id="stop1419" offset="0" class="s0"/>
      <stop id="stop1421" offset="0.4" class="s1"/>
      <stop id="stop1423" offset="0.7" class="s2"/>
      <stop id="stop1425" offset="1" class="s3"/>
    </linearGradient>
    <linearGradient xlink:href="#linearGradient839" id="linearGradient1381" x1="0" y1="0.5" x2="1" y2="0.5"/>
    <linearGradient id="linearGradient1371">
      <stop offset="0" id="stop1373" class="s0"/>
      <stop offset="0.4" id="stop1375" class="s1"/>
      <stop offset="0.7" id="stop1377" class="s2"/>
      <stop offset="1" id="stop1379" class="s3"/>
    </linearGradient>
    <linearGradient y2="0.5" x2="1" y1="0.5" x1="0" id="linearGradient1374" xlink:href="#linearGradient839"/>
    <linearGradient id="linearGradient1364">
      <stop id="stop1366" offset="0" class="s0"/>
      <stop id="stop1368" offset="0.4" class="s1"/>
      <stop id="stop1370" offset="0.7" class="s2"/>
      <stop id="stop1372" offset="1" class="s3"/>
    </linearGradient>
    <linearGradient y2="0.5" x2="1" y1="0.5" x1="0" id="linearGradient1389" xlink:href="#linearGradient839"/>
    <linearGradient id="linearGradient833">
      <stop id="stop834" offset="0" class="s4"/>
      <stop id="stop837" offset="0.3" class="s5"/>
      <stop id="stop838" offset="0.8" class="s6"/>
      <stop id="stop835" offset="1" class="s7"/>
    </linearGradient>
    <linearGradient id="linearGradient1373">
      <stop id="stop1376" offset="0" class="s0"/>
      <stop id="stop1378" offset="0.4" class="s1"/>
      <stop id="stop1380" offset="0.7" class="s2"/>
      <stop id="stop1382" offset="1" class="s3"/>
    </linearGradient>
    <linearGradient y2="84" x2="107.8" y1="84" x1="12.2" gradientTransform="matrix(1.222575,0,0,0.738788,-10.653167,-7.7425927)" gradientUnits="userSpaceOnUse" id="linearGradient1401" xlink:href="#linearGradient839"/>
    <linearGradient y2="0.5" x2="1" y1="0.5" x1="0" id="linearGradient2974" xlink:href="#linearGradient839"/>
    <linearGradient id="linearGradient2964">
      <stop id="stop2966" offset="0" class="s4"/>
      <stop id="stop2968" offset="0.3" class="s5"/>
      <stop id="stop2970" offset="0.8" class="s6"/>
      <stop id="stop2972" offset="1" class="s7"/>
    </linearGradient>
    <linearGradient id="linearGradient2954">
      <stop id="stop2956" offset="0" class="s0"/>
      <stop id="stop2958" offset="0.4" class="s1"/>
      <stop id="stop2960" offset="0.7" class="s2"/>
      <stop id="stop2962" offset="1" class="s3"/>
    </linearGradient>
    <linearGradient y2="84" x2="107.8" y1="84" x1="12.2" gradientTransform="matrix(1.353569,0,0,0.738788,-182.1667,-25.6819)" gradientUnits="userSpaceOnUse" id="linearGradient2987" xlink:href="#linearGradient839"/>
    <linearGradient xlink:href="#linearGradient839" id="linearGradient1418" x1="0" y1="0.5" x2="1" y2="0.5"/>
    <linearGradient id="linearGradient1408">
      <stop offset="0" id="stop1410" class="s4"/>
      <stop offset="0.3" id="stop1412" class="s5"/>
      <stop offset="0.8" id="stop1414" class="s6"/>
      <stop offset="1" id="stop1416" class="s7"/>
    </linearGradient>
    <linearGradient id="linearGradient1397">
      <stop offset="0" id="stop1399" class="s0"/>
      <stop offset="0.4" id="stop1401" class="s1"/>
      <stop offset="0.7" id="stop1403" class="s2"/>
      <stop offset="1" id="stop1405" class="s3"/>
    </linearGradient>
    <linearGradient xlink:href="#linearGradient839" id="linearGradient1431" gradientUnits="userSpaceOnUse" gradientTransform="matrix(1.353569,0,0,0.738788,-194.7091,-13.83491)" x1="12.2" y1="84" x2="107.8" y2="84"/>
    <linearGradient y2="0.5" x2="1" y1="0.5" x1="0" id="linearGradient1430" xlink:href="#linearGradient839"/>
    <linearGradient id="linearGradient1419">
      <stop id="stop1422" offset="0" class="s4"/>
      <stop id="stop1424" offset="0.3" class="s5"/>
      <stop id="stop1426" offset="0.8" class="s6"/>
      <stop id="stop1428" offset="1" class="s7"/>
    </linearGradient>
    <linearGradient id="linearGradient1409">
      <stop id="stop1411" offset="0" class="s0"/>
      <stop id="stop1413" offset="0.4" class="s1"/>
      <stop id="stop1415" offset="0.7" class="s2"/>
      <stop id="stop1417" offset="1" class="s3"/>
    </linearGradient>
    <linearGradient y2="0.5" x2="1" y1="0.5" x1="0" id="linearGradient2256" xlink:href="#linearGradient839"/>
    <linearGradient id="linearGradient2246">
      <stop id="stop2248" offset="0" class="s4"/>
      <stop id="stop2250" offset="0.3" class="s5"/>
      <stop id="stop2252" offset="0.8" class="s6"/>
      <stop id="stop2254" offset="1" class="s7"/>
    </linearGradient>
    <linearGradient id="linearGradient2236">
      <stop id="stop2238" offset="0" class="s0"/>
      <stop id="stop2240" offset="0.4" class="s1"/>
      <stop id="stop2242" offset="0.7" class="s2"/>
      <stop id="stop2244" offset="1" class="s3"/>
    </linearGradient>
    <linearGradient y2="84" x2="107.8" y1="84" x1="12.2" gradientTransform="matrix(1.353569,0,0,0.738788,-202.1667,-3.665422)" gradientUnits="userSpaceOnUse" id="linearGradient2269" xlink:href="#linearGradient839"/>
    <linearGradient xlink:href="#linearGradient839" id="linearGradient1452" x1="0" y1="0.5" x2="1" y2="0.5"/>
    <linearGradient id="linearGradient1442">
      <stop offset="0" id="stop1444" class="s4"/>
      <stop offset="0.3" id="stop1446" class="s5"/>
      <stop offset="0.8" id="stop1448" class="s6"/>
      <stop offset="1" id="stop1450" class="s7"/>
    </linearGradient>
    <linearGradient id="linearGradient1432">
      <stop offset="0" id="stop1434" class="s0"/>
      <stop offset="0.4" id="stop1436" class="s1"/>
      <stop offset="0.7" id="stop1438" class="s2"/>
      <stop offset="1" id="stop1440" class="s3"/>
    </linearGradient>
    <linearGradient xlink:href="#linearGradient839" id="linearGradient2281" x1="0" y1="0.5" x2="1" y2="0.5"/>
    <linearGradient id="linearGradient2271">
      <stop offset="0" id="stop2273" class="s4"/>
      <stop offset="0.3" id="stop2275" class="s5"/>
      <stop offset="0.8" id="stop2277" class="s6"/>
      <stop offset="1" id="stop2279" class="s7"/>
    </linearGradient>
    <linearGradient id="linearGradient2261">
      <stop offset="0" id="stop2263" class="s0"/>
      <stop offset="0.4" id="stop2265" class="s1"/>
      <stop offset="0.7" id="stop2267" class="s2"/>
      <stop offset="1" id="stop2269" class="s3"/>
    </linearGradient>
    <linearGradient xlink:href="#linearGradient839" id="linearGradient2294" gradientUnits="userSpaceOnUse" gradientTransform="matrix(1.353569,0,0,0.738788,-163.5227,-7.733217)" x1="12.2" y1="84" x2="107.8" y2="84"/>
    <linearGradient y2="0.5" x2="1" y1="0.5" x1="0" id="linearGradient1475" xlink:href="#linearGradient839"/>
    <linearGradient id="linearGradient1465">
      <stop id="stop1467" offset="0" class="s4"/>
      <stop id="stop1469" offset="0.3" class="s5"/>
      <stop id="stop1471" offset="0.8" class="s6"/>
      <stop id="stop1473" offset="1" class="s7"/>
    </linearGradient>
    <linearGradient id="linearGradient1455">
      <stop id="stop1457" offset="0" class="s0"/>
      <stop id="stop1459" offset="0.4" class="s1"/>
      <stop id="stop1461" offset="0.7" class="s2"/>
      <stop id="stop1463" offset="1" class="s3"/>
    </linearGradient>
    <linearGradient y2="0.5" x2="1" y1="0.5" x1="0" id="linearGradient2300" xlink:href="#linearGradient839"/>
    <linearGradient id="linearGradient2290">
      <stop id="stop2292" offset="0" class="s4"/>
      <stop id="stop2294" offset="0.3" class="s5"/>
      <stop id="stop2296" offset="0.8" class="s6"/>
      <stop id="stop2298" offset="1" class="s7"/>
    </linearGradient>
    <linearGradient id="linearGradient2280">
      <stop id="stop2282" offset="0" class="s0"/>
      <stop id="stop2284" offset="0.4" class="s1"/>
      <stop id="stop2286" offset="0.7" class="s2"/>
      <stop id="stop2288" offset="1" class="s3"/>
    </linearGradient>
    <linearGradient y2="84" x2="107.8" y1="84" x1="12.2" gradientTransform="matrix(1.353569,0,0,0.738788,-186.9125,-34.85186)" gradientUnits="userSpaceOnUse" id="linearGradient2313" xlink:href="#linearGradient839"/>
    <linearGradient xlink:href="#linearGradient839" id="linearGradient1498" x1="0" y1="0.5" x2="1" y2="0.5"/>
    <linearGradient id="linearGradient1488">
      <stop offset="0" id="stop1490" class="s4"/>
      <stop offset="0.3" id="stop1492" class="s5"/>
      <stop offset="0.8" id="stop1494" class="s6"/>
      <stop offset="1" id="stop1496" class="s7"/>
    </linearGradient>
    <linearGradient id="linearGradient1478">
      <stop offset="0" id="stop1480" class="s0"/>
      <stop offset="0.4" id="stop1482" class="s1"/>
      <stop offset="0.7" id="stop1484" class="s2"/>
      <stop offset="1" id="stop1486" class="s3"/>
    </linearGradient>
    <linearGradient xlink:href="#linearGradient839" id="linearGradient1511" gradientUnits="userSpaceOnUse" gradientTransform="matrix(1.353569,0,0,0.738788,-186.9125,-20.61457)" x1="12.2" y1="84" x2="107.8" y2="84"/>
  </defs>
  <rect id="rect834" width="117.8" height="133.4" x="3.8" y="3.8" ry="22.9" rx="22.9" style="fill:none;stroke-linejoin:round;stroke-opacity:0.5;stroke-width:7.5;stroke:#000"/>
  <rect id="rect828" width="117.8" height="133.4" x="3.6" y="3.7" ry="22.9" rx="22.9" style="fill:#df421e;stroke-width:3.8;stroke:#000"/>
  <rect rx="1.3" y="20.8" x="5.9" ry="1.3" height="67.2" width="113.7" id="rect832" style="fill:url(#linearGradient1401);stroke-width:3.3;stroke:#000"/>
  <path d="M100.3 132.6L24.6 132.6C13 132.6 7.3 126.9 7.3 115.2 7.3 115.2 34.9 48.7 117.7 38.6L117.7 115.2C117.7 126.9 112 132.6 100.3 132.6z" id="path2838" style="fill-opacity:0.3;fill:#fff"/>
  <path d="M24.6 7.3L100.3 7.3C112 7.3 117.7 13 117.7 24.7 117.7 24.7 38.4 25.6 7.3 116L7.3 24.7C7.3 14.4 14.3 7.3 24.6 7.3z" id="rect2063" fill="url(#linearGradient2830)"/>
  <path d="M82.7 125.3L75.9 125.3 75.9 94.2 85.9 94.2 94.1 118.3 102.3 94.2 112.4 94.2 112.4 125.3 105.7 125.3 105.7 102.1 105.5 102.1 97.4 125.3 90.9 125.3 82.8 102.1 82.7 102.1 82.7 125.3zM49.8 125.3L43.1 125.3 43.1 94.2 51.5 94.2 64.3 117 64.5 117 64.5 94.2 71.2 94.2 71.2 125.3 62.7 125.3 49.9 102.6 49.8 102.6 49.8 125.3zM18.5 114.2L18.5 125.3 11.8 125.3 11.8 94.2 30.5 94.2C33.4 94.2 35.7 95.1 37.3 96.8 39 98.5 39.9 100.9 39.9 104.2 39.9 107.5 39 109.9 37.3 111.7 35.7 113.4 33.4 114.2 30.5 114.2L18.5 114.2zM18.5 99.6L18.5 108.9 27.5 108.9C28.9 108.9 30.1 108.5 31.1 107.8 32 107 32.5 105.8 32.5 104.2 32.5 102.6 32 101.5 31.1 100.7 30.1 100 28.9 99.6 27.5 99.6L18.5 99.6z" id="path877" style="font-family:Trek;font-size:40;stroke-width:1"/>
  <path d="M82 124.7L75.3 124.7 75.3 93.5 85.3 93.5 93.4 117.6 101.7 93.5 111.7 93.5 111.7 124.7 105 124.7 105 101.4 104.8 101.4 96.7 124.7 90.2 124.7 82.1 101.4 82 101.4 82 124.7zM49.1 124.7L42.4 124.7 42.4 93.5 50.9 93.5 63.6 116.3 63.8 116.3 63.8 93.5 70.5 93.5 70.5 124.7 62 124.7 49.3 101.9 49.1 101.9 49.1 124.7zM17.9 113.5L17.9 124.7 11.1 124.7 11.1 93.5 29.8 93.5C32.7 93.5 35 94.4 36.7 96.1 38.3 97.8 39.2 100.3 39.2 103.5 39.2 106.8 38.3 109.3 36.7 111 35 112.7 32.7 113.5 29.8 113.5L17.9 113.5zM17.9 98.9L17.9 108.2 26.8 108.2C28.2 108.2 29.4 107.8 30.4 107.1 31.3 106.3 31.8 105.1 31.8 103.5 31.8 102 31.3 100.8 30.4 100.1 29.5 99.3 28.3 98.9 26.8 98.9L17.9 98.9z" id="path1515" style="fill:#fff;font-family:Trek;font-size:40;stroke-width:1"/>
</svg>
